X: 1
T: Jewish
M: 4/4
L: 1/8
R: reel
K: Dmaj
|:AEAc BEBd|cEcf e2ef|gfed ceAc|BE^GB AdcB:|
|:AEAc BEBd|cEcf e2ef|gfed ceAc|1 BE^GB AdcB:|2 BE^GB ABcd||
|:efed cEAc|BE^GB ABcd|efed cEAc|1 BE^GB ABcd:|2 BE^GB A^GA^G||
|:ABcd e^def|gfe^d e^def|gfed ceAc|1 BE^GB AdcB:|2 BE^GB A4||
e4 e2 (3^def|e4 e2 (3^def|e2 (3^def e2 (3^def| e2 (3^def e2ef|
|:gfe^d eAce|^defd e2ef|gfe^d eAce|1 ^defd e2ef:|2 ^defd e2e=d||
|:ce~e2 ^defd|eddc cBBA|ce~e2 ^def^g|a^g=gf =fe^d=d|
ce~e2 ^defd|eddc cBBA|AEBE cEdE|1 (3cdc (3BcB A2ed:|2 cdBc AdcB||
